src/static/logos/rackspace.svg

<?xml version="1.0" encoding="UTF-8"?>
<svg width="512px" height="103px" viewBox="0 0 512 103" version="1.1" xmlns="http://www.w3.org/2000/svg" xmlns:xlink="http://www.w3.org/1999/xlink" preserveAspectRatio="xMidYMid">
    <g>
        <path d="M261.080743,61.6440643 C261.080743,67.3422551 259.181346,72.1770837 255.382552,75.9758776 C250.375051,80.9833786 242.259446,83.7461378 232.417116,83.5734653 C225.337546,83.4007929 218.257976,81.6740684 214.286509,79.2566541 L216.876596,65.0975133 C221.193407,67.5149276 228.618323,69.9323419 234.143841,69.9323419 C238.805997,69.9323419 241.741429,67.8602725 241.741429,64.4068235 C241.741429,61.2987194 239.496687,59.22665 233.971168,56.4638908 C225.164874,52.1470796 220.848062,46.6215612 220.848062,40.0600082 C220.848062,27.282247 231.899099,18.475952 248.302982,18.475952 C256.936604,18.475952 262.634795,20.5480214 265.742899,22.6200908 L263.152812,36.6065592 C260.735398,34.7071623 254.346517,32.1170755 247.43962,32.1170755 C242.604791,32.1170755 239.496687,34.1891449 239.496687,37.4699214 C239.496687,39.8873357 241.914101,41.9594051 246.921602,44.5494919 C253.655828,48.0029408 261.080743,53.0104419 261.080743,61.6440643 L261.080743,61.6440643 Z M511.973811,74.7671704 C512.319156,70.4503592 509.211052,66.9969102 504.894241,66.9969102 C500.57743,66.9969102 496.778636,70.4503592 496.433291,74.7671704 C496.087946,78.7386368 498.850705,82.5374307 503.512861,82.5374307 C507.829673,82.5374307 511.628467,79.0839817 511.973811,74.7671704 Z M510.937777,74.7671704 C510.592432,78.3932919 507.311655,81.501396 503.512861,81.501396 C499.88674,81.501396 497.296653,78.5659643 497.641998,74.9398429 C497.987343,71.3137215 501.26812,68.2056174 505.066914,68.2056174 C508.520362,68.2056174 511.110449,71.141049 510.937777,74.7671704 Z M505.584931,75.8032051 L506.793638,79.4293266 L505.584931,79.4293266 L504.376224,75.9758776 L502.649499,75.9758776 L501.958809,79.4293266 L500.750102,79.4293266 L502.476827,70.2776868 L505.412258,70.2776868 C506.793638,70.2776868 507.829673,71.3137215 507.829673,72.5224286 C508.002345,73.7311357 507.138983,75.2851878 505.584931,75.8032051 L505.584931,75.8032051 Z M505.584931,71.3137215 L503.512861,71.3137215 L502.822172,74.7671704 L504.721569,74.7671704 C505.757603,74.7671704 506.620966,73.9038082 506.793638,72.8677735 C506.96631,72.1770837 506.448293,71.3137215 505.584931,71.3137215 Z M471.913803,69.2416521 C479.684063,69.2416521 486.418289,67.3422551 493.670532,63.1981164 L490.7351,78.7386368 C481.928805,83.2281204 471.568458,83.7461378 467.596992,83.7461378 C450.329747,83.7461378 440.66009,74.2491531 440.66009,57.4999255 C440.66009,47.8302684 444.286211,38.1606112 450.329747,31.0810408 C456.8913,23.3107806 466.73363,18.8212969 476.921304,18.8212969 C489.871738,18.8212969 498.678033,26.4188847 498.678033,37.6425939 C498.678033,42.8227674 496.951308,47.1395786 493.670532,50.4203551 C487.454324,56.4638908 472.086476,59.9173398 458.27268,57.1545806 C457.409318,64.7521684 463.280181,69.2416521 471.913803,69.2416521 L471.913803,69.2416521 Z M459.999404,44.8948368 C470.877769,45.0675092 476.921304,43.8588021 479.684063,41.2687153 C482.619495,38.3332837 481.58346,32.289748 474.50389,32.289748 C466.560957,32.289748 461.380784,38.851301 459.999404,44.8948368 Z M387.476976,47.4849235 L380.74275,82.3647582 L363.13016,82.3647582 L365.374902,70.2776868 C362.957488,77.7026021 356.913952,83.7461378 346.726278,83.7461378 C334.466534,83.7461378 328.941015,72.8677735 328.941015,61.9894092 C328.941015,49.5569929 333.775844,37.297249 341.891449,29.1816439 C348.798347,22.2747459 357.604642,18.6486245 367.446972,18.6486245 C384.886889,18.8212969 390.58508,30.5630235 387.476976,47.4849235 L387.476976,47.4849235 Z M370.382403,39.5419908 C370.209731,35.2251796 367.792317,32.8077653 363.82085,32.8077653 C355.187228,32.8077653 347.58964,47.8302684 347.58964,58.1906153 C347.58964,64.7521684 350.007054,68.7236347 354.151193,68.7236347 C360.885419,68.7236347 366.756282,61.6440643 368.655679,51.4563898 C369.519041,48.0029408 370.555076,42.30475 370.382403,39.5419908 L370.382403,39.5419908 Z M103.430797,47.4849235 L96.6965715,82.3647582 L79.0839817,82.3647582 L81.3287235,70.2776868 C78.9113092,77.7026021 72.8677735,83.7461378 62.680099,83.7461378 C50.4203551,83.7461378 44.8948368,72.8677735 44.8948368,61.9894092 C44.8948368,49.5569929 49.7296653,37.297249 57.8452704,29.1816439 C64.7521684,22.2747459 73.5584633,18.6486245 83.4007929,18.6486245 C100.84071,18.8212969 106.711574,30.5630235 103.430797,47.4849235 L103.430797,47.4849235 Z M86.508897,39.5419908 C86.3362245,35.2251796 83.9188102,32.8077653 79.9473439,32.8077653 C71.3137215,32.8077653 63.7161337,47.8302684 63.7161337,58.1906153 C63.7161337,64.7521684 66.133548,68.7236347 70.2776868,68.7236347 C77.0119123,68.7236347 82.8827755,61.6440643 84.7821725,51.4563898 C85.4728623,48.0029408 86.508897,42.30475 86.508897,39.5419908 Z M327.732308,42.4774225 C327.732308,57.672598 320.480065,73.2131184 307.356959,80.1200164 C302.522131,82.7101031 297.859975,83.7461378 293.888508,83.7461378 C287.326955,83.7461378 283.700834,81.3287235 281.628764,77.5299296 L276.966608,102.394762 L258.490656,102.394762 L274.203849,19.8573316 L290.435059,19.8573316 L288.535662,29.8723337 C293.197819,23.1381082 299.932044,18.6486245 307.702304,18.6486245 C319.789376,18.6486245 327.732308,27.9729367 327.732308,42.4774225 Z M308.565666,43.8588021 C308.565666,40.9233704 307.874977,33.8438 301.140751,33.8438 C294.233853,33.8438 288.36299,41.6140602 286.118248,53.5284592 C285.254886,57.672598 283.182816,69.7596694 291.643766,69.7596694 C301.313424,69.7596694 308.565666,55.9458735 308.565666,43.8588021 L308.565666,43.8588021 Z M25.7281949,33.6711276 L28.3182816,19.8573316 L12.0870714,19.8573316 L0,83.5734653 L18.475952,83.5734653 L23.4834531,57.3272531 C26.4188847,41.7867327 35.2251796,35.5705245 48.0029408,37.6425939 L51.6290623,18.6486245 C40.5780255,17.4399174 30.2176786,23.6561255 25.7281949,33.6711276 L25.7281949,33.6711276 Z M174.053829,82.3647582 L180.442709,48.8663031 L193.565815,82.3647582 L213.423147,82.3647582 L199.782024,48.6936306 L224.474184,19.8573316 L204.271507,19.8573316 L180.442709,48.3482857 L189.594349,0 L171.291069,0 L155.577877,82.5374307 L174.053829,82.5374307 L174.053829,82.3647582 Z M431.163105,18.8212969 C408.024997,18.8212969 390.58508,35.743197 390.58508,58.1906153 C390.58508,73.7311357 400.945427,83.7461378 416.831292,83.7461378 C423.73819,83.7461378 430.299743,82.5374307 434.616554,80.4653613 L437.551986,64.9248408 C431.853795,67.6876 427.364311,68.8963072 422.011466,68.8963072 C416.140602,68.8963072 409.924394,65.6155306 409.924394,56.1185459 C409.924394,45.0675092 417.694654,33.6711276 430.990433,33.6711276 C434.961899,33.6711276 438.242676,34.5344898 441.178107,36.0885419 L444.113539,21.0660388 C440.66009,19.6846592 435.825261,18.8212969 431.163105,18.8212969 Z M147.116927,18.8212969 C123.978818,18.8212969 106.538901,35.743197 106.538901,58.1906153 C106.538901,73.7311357 116.899248,83.7461378 132.785113,83.7461378 C139.692011,83.7461378 146.253564,82.5374307 150.570376,80.4653613 L153.505807,64.9248408 C147.807616,67.6876 143.318133,68.8963072 137.965287,68.8963072 C132.094424,68.8963072 125.878215,65.6155306 125.878215,56.1185459 C125.878215,45.0675092 133.648476,33.6711276 146.944254,33.6711276 C150.91572,33.6711276 154.196497,34.5344898 157.131929,36.0885419 L160.06736,21.0660388 C156.613911,19.6846592 151.779083,18.8212969 147.116927,18.8212969 Z" fill="#000000"></path>
    </g>
</svg>

<svg width="512" height="103" xmlns="http://www.w3.org/2000/svg" preserveAspectRatio="xMidYMid"><path d="M261.08 61.644c0 5.698-1.899 10.533-5.697 14.332-5.008 5.007-13.124 7.77-22.966 7.597-7.08-.172-14.159-1.899-18.13-4.316l2.59-14.16c4.316 2.418 11.741 4.835 17.267 4.835 4.662 0 7.597-2.072 7.597-5.525 0-3.108-2.244-5.18-7.77-7.943-8.806-4.317-13.123-9.842-13.123-16.404 0-12.778 11.051-21.584 27.455-21.584 8.634 0 14.332 2.072 17.44 4.144l-2.59 13.987c-2.418-1.9-8.806-4.49-15.713-4.49-4.835 0-7.943 2.072-7.943 5.353 0 2.417 2.417 4.49 7.425 7.08 6.734 3.453 14.159 8.46 14.159 17.094zm250.894 13.123c.345-4.317-2.763-7.77-7.08-7.77s-8.115 3.453-8.46 7.77c-.346 3.972 2.417 7.77 7.079 7.77 4.317 0 8.115-3.453 8.46-7.77zm-1.036 0c-.346 3.626-3.626 6.734-7.425 6.734-3.626 0-6.216-2.935-5.871-6.561.345-3.626 3.626-6.734 7.425-6.734 3.453 0 6.043 2.935 5.87 6.561zm-5.353 1.036l1.209 3.626h-1.21l-1.208-3.453h-1.727l-.69 3.453h-1.209l1.727-9.151h2.935c1.382 0 2.418 1.036 2.418 2.244.172 1.21-.691 2.763-2.245 3.281zm0-4.49h-2.072l-.69 3.454h1.899c1.036 0 1.899-.863 2.072-1.9.172-.69-.346-1.553-1.21-1.553zm-33.671-2.071c7.77 0 14.504-1.9 21.757-6.044l-2.936 15.54c-8.806 4.49-19.167 5.008-23.138 5.008-17.267 0-26.937-9.497-26.937-26.246 0-9.67 3.626-19.34 9.67-26.419 6.561-7.77 16.404-12.26 26.591-12.26 12.95 0 21.757 7.598 21.757 18.822 0 5.18-1.727 9.497-5.007 12.777-6.217 6.044-21.585 9.497-35.398 6.735-.864 7.597 5.007 12.087 13.64 12.087zm-11.915-24.347c10.879.173 16.922-1.036 19.685-3.626 2.935-2.936 1.9-8.98-5.18-8.98-7.943 0-13.123 6.562-14.505 12.606zm-72.522 2.59l-6.734 34.88H363.13l2.245-12.087c-2.418 7.425-8.461 13.468-18.649 13.468-12.26 0-17.785-10.878-17.785-21.757 0-12.432 4.835-24.692 12.95-32.807 6.907-6.907 15.714-10.533 25.556-10.533 17.44.172 23.138 11.914 20.03 28.836zm-17.095-7.943c-.172-4.317-2.59-6.734-6.561-6.734-8.634 0-16.231 15.022-16.231 25.383 0 6.561 2.417 10.533 6.561 10.533 6.734 0 12.605-7.08 14.505-17.268.863-3.453 1.9-9.151 1.726-11.914zm-266.951 7.943l-6.734 34.88H79.084l2.245-12.087c-2.418 7.425-8.461 13.468-18.649 13.468-12.26 0-17.785-10.878-17.785-21.757 0-12.432 4.835-24.692 12.95-32.807 6.907-6.907 15.713-10.533 25.556-10.533 17.44.172 23.31 11.914 20.03 28.836zm-16.922-7.943c-.173-4.317-2.59-6.734-6.562-6.734-8.633 0-16.23 15.022-16.23 25.383 0 6.561 2.417 10.533 6.56 10.533 6.735 0 12.606-7.08 14.505-17.268.69-3.453 1.727-9.151 1.727-11.914zm241.223 2.935c0 15.196-7.252 30.736-20.375 37.643-4.835 2.59-9.497 3.626-13.468 3.626-6.562 0-10.188-2.417-12.26-6.216l-4.662 24.865H258.49l15.713-82.538h16.231l-1.9 10.015c4.663-6.734 11.397-11.223 19.167-11.223 12.087 0 20.03 9.324 20.03 23.828zm-19.166 1.382c0-2.936-.691-10.015-7.425-10.015-6.907 0-12.778 7.77-15.023 19.684-.863 4.145-2.935 16.232 5.526 16.232 9.67 0 16.922-13.814 16.922-25.901zM25.728 33.67l2.59-13.814h-16.23L0 83.573h18.476l5.007-26.246c2.936-15.54 11.742-21.756 24.52-19.684l3.626-18.994c-11.051-1.21-21.411 5.007-25.9 15.022zm148.326 48.694l6.389-33.499 13.123 33.499h19.857l-13.641-33.671 24.692-28.837h-20.202l-23.83 28.491L189.595 0h-18.303l-15.713 82.537h18.476v-.172zm257.11-63.544c-23.139 0-40.579 16.922-40.579 39.37 0 15.54 10.36 25.555 26.246 25.555 6.907 0 13.469-1.209 17.786-3.28l2.935-15.541c-5.698 2.763-10.188 3.971-15.54 3.971-5.871 0-12.088-3.28-12.088-12.777 0-11.051 7.77-22.448 21.066-22.448 3.972 0 7.253.863 10.188 2.418l2.936-15.023c-3.454-1.381-8.289-2.245-12.95-2.245zm-284.047 0c-23.138 0-40.578 16.922-40.578 39.37 0 15.54 10.36 25.555 26.246 25.555 6.907 0 13.469-1.209 17.785-3.28l2.936-15.541c-5.698 2.763-10.188 3.971-15.54 3.971-5.872 0-12.088-3.28-12.088-12.777 0-11.051 7.77-22.448 21.066-22.448 3.972 0 7.252.863 10.188 2.418l2.935-15.023c-3.453-1.381-8.288-2.245-12.95-2.245z"/></svg>
